X:23026
T:Wheatsheaf Tavern
T:Tafarn y Wheatsheaf
R:Jig
C:Trad.
O:Wales
Z:Paul Hardy's Session Tunebook 2015 (see www.paulhardy.net). Creative Commons cc by-nc-sa licenced.
M:6/8
L:1/8
Q:3/8=100
K:G
"G"gfg d2B|"C"cde"G"d3|"Am"cac "G"BgB|"D"Adc "G"BAG|
"G"gfg d2B|"C"cde"G"d3|"Am"caf "G"gdB|"D7"cAF"G"G3:|
|:"G"BAB GAB|"C"cBc "Am"ABc|"G"Bdc BAG|"D"FDE FGA|
"G"BAB GAB|"Am"cAF "D"DEC|"G"B,CD "C"EFG|1"D"AGF"G"G3:|2"Am"ABc "D7"def|]

